images/icons/eMail.svg

<svg width="48" height="48" viewBox="0 0 48 48" fill="none" xmlns="http://www.w3.org/2000/svg">
<path d="M43.5 6.00043H4.50003C2.01856 6.00043 0 8.01899 0 10.5005V37.5005C0 39.9819 2.01856 42.0005 4.50003 42.0005H43.5C45.9814 42.0005 48 39.9819 48 37.5005V10.5005C48 8.01899 45.9814 6.00043 43.5 6.00043ZM43.5 9.00041C43.7038 9.00041 43.8976 9.0427 44.0749 9.11654L24 26.5156L3.925 9.11654C4.10225 9.0428 4.29613 9.00041 4.49993 9.00041H43.5ZM43.5 39.0004H4.50003C3.67241 39.0004 2.99999 38.3281 2.99999 37.5003V12.2861L23.0171 29.6342C23.2998 29.8788 23.6499 30.0004 24 30.0004C24.3501 30.0004 24.7002 29.8789 24.9829 29.6342L45 12.2861V37.5005C44.9999 38.3281 44.3276 39.0004 43.5 39.0004Z" fill="#512DA8"/>
</svg>

<svg width="48" height="48" fill="none" xmlns="http://www.w3.org/2000/svg"><path d="M43.5 6h-39A4.505 4.505 0 000 10.5v27C0 39.983 2.019 42 4.5 42h39c2.481 0 4.5-2.018 4.5-4.5v-27C48 8.02 45.981 6 43.5 6zm0 3c.204 0 .398.043.575.117L24 26.516 3.925 9.116C4.102 9.044 4.296 9 4.5 9h39zm0 30h-39c-.828 0-1.5-.672-1.5-1.5V12.286l20.017 17.348a1.498 1.498 0 001.966 0L45 12.286v25.215c0 .827-.672 1.5-1.5 1.5z" fill="#512DA8"/></svg>
